X:6
T:The Outlandish Knight
C:Trad
B:Bronson
O:"The Outlandish Knight." Lucy E. Broadwood, JFSS, IV
O:(I910), p. 119(3). Also in Baring-Gould MSS., CXIV(5).
O:Sung by Mrs. Fletcher, near Liston, North Devon, September, 1893.
N:No lyrics in Bronson
M:4/4
L:1/8
K:G
G2 | G2 dd d2 e2 | cc A2 G2 Sgf |
ed cc AB c2 | d4 z2 Sdg | g2 fd ed dd |
ed dc cB G SB | dd e2 c2 A2 | G6 |]
